X: 173
T: A Farruquiña
R: polka
M: 2/4
K: Dmajor
d2>A2 BABc|d2A2 B2c2|d2cd edcB|A2>F2 AGFE|
D2>E2 FEFG|A2>B2 cdcA|(3BcBA2- A4-|A4- A2DE||
|:F2>D2 FDFA|GFED C2CE|G2>E2 GEGB|AGFE D2DE|
F2>D2 FDFA|GFED CDEF|GFED CDEF|AGFE D2DE|
F2>D2 FDFA|GFED C2CE|G2>E2 GEGB|AGFE D2DE|
F2>D2 FDFA|GFED C4|G2F2 A2G2|[M:3/4] E2C2 D4- D2DF:|
|:AGFE AGFE|B2AF DFDF|AGFE AGFE|1 D2CE D2DF:|2 D4- D2BA||
|:GAGF EBAG|FGFE D2GF|EFED CGFE|(3GAGF2- F2BA|
GAGF EBAG|FGFE D2GF|EFED CGFE|1 D4- D2BA:|2 D8||

